X: 11982
T: Enkronaspolskan
R: slip jig
M: 9/8
K: Aminor
|:E>e- e>d e>B|d2 B>d c>B|A>^G (3ABc (3dBc|A>^G (3ABc (3ABG|
(3E2e2d2 e>B|d2 B>d c>B|A>^G (3ABc (3dBc|(3AB^G A4:|
|:E2- E>^G (3ABc|d>c- cA/c/ B>A|^G>^F G<A B>c|A>^G (3ABc (3ABG|
E>^G (3ABc d>d-|d>c- cA/c/ B>A|^G>^F G<A B>c|(3AB^G A4:|

